X:4
T:3. Ronde
C:Tielman Susato
S:Tileman Susato: Danserye (1551)
R:Ronde
M:4/2
L:1/2
T:Bassus
K:C bass
dd/2G/2dd|ddec|ccdG|d2AA|dd/2G/2dd|ddeA/2B/2|
%
c/2d/2edG|A2dd::dddA|edcf|ede2|A2d2:|
